X: 5881
T: Calum's
R: reel
M: 4/4
K: Dmajor
|:F2>F2 EDCE|DEED G2FG|AddA BAFA|E2ED EGFE|
F2>F2 EDCE|DE (3FED G2FG|AddA BAFA|EDEF D4:|
|:LDFAc d2 LDF|Acd2 LDFAd|B2>d2 AFDF|E2>D2 EGFE|
accent!DFAc d2 LDF|Acd2 LDFAd|B2>d2 AFDF|EDEF D4:|

